!!!OTL: Die Blutbraut.
!!!OTL-incipit: ENGEL BENGEL LASS MICH LEBEN
!!!ARE: Europa, Mitteleuropa, Deutschland, Nord - Deutschland
!!!SCT: Z1049
!!!TXL: @@DE
!!!YEM: Copyright 1995, estate of Helmut Schaffrath.
**kern	**text
*ICvox	*
*M2/4	*
*k[]	*
*a:	*
!LO:TX:a:t=Aus Norddeutſchland.	!
{8a	En-
8a	-gel,
8g	Bengel,
8g	.
=1	=1
8f	laß
8f	mich
8e	le-
8e}	-ben,
=2	=2
{8cc	will
8cc	dir
8b	Or-
8b	-la-
=3	=3
8a	-mün-
8a	-de
8g#	ge-
8e}	-ben!
=4	=4
{8a	Eu-
8a	-re
8g	Mut-
8g	-ter
=5	=5
8f	will
8f	euch
4dd}	todt,
=6	=6
{8cc	um
8b	vier
8a	Au-
8cc	-gen
=7	=7
8b/	thut
8g#	das
8a;	noth.
8r}	.
==	==
!!!Ag: Romanze, Ballade, Tod
!!!ONB: ESAC (Essen Associative Code) Database: ZUCCAL
!!!AMT: simple duple
!!!AIN: vox
!!!EED: Helmut Schaffrath
!!!EEV: 1.0
!!!GTL: II. Gau- Leuschen.
!!!URL-scan: https://www.digitale-sammlungen.de/de/view/bsb11160573?page=115
!!!ENC: Anna Maria Matuszewska
!!!EEV: 2025/03/02
*-	*-
